X: 392
T: Boli liangmian guang
L: 1/8
M: 2/4
K: G
d> d d e [I:setbarnb 1]| 
g ed2 | 
d> d d e | 
g ed2 | 
g ed2 | 
g ed2 | 
E G B A | 
G4 | 
A GA2- | 
A2A B | 
d G F E | 
D4 | 
G F A E | 
D4 |]

@@@ Tune index: 9266
